Suru++-Ubuntu/apps/symbolic/application-default-icon-symbolic.svg

<svg width="16" height="16" version="1.1" xmlns="http://www.w3.org/2000/svg">
 <g transform="translate(-612 -180)" fill="#808080">
  <path transform="translate(612,180)" d="m3.9941406 1c-1.258 0.015-2.1786406-0.03023437-2.9316406 0.3847656a1.88 1.88 0 0 0-0.83789062 0.9980469c-0.165 0.438-0.22460938 0.9601875-0.22460938 1.6171875v8c0 0.658 0.059609375 1.179188 0.22460938 1.617188 0.16399999 0.438999 0.46189062 0.790046 0.83789062 0.998046 0.753 0.416 1.6736406 0.369766 2.9316406 0.384766h8.0117184c1.258-0.015 2.178641 0.030234 2.931641-0.384766a1.88 1.88 0 0 0 0.837891-0.998046c0.164-0.438 0.224609-0.960188 0.224609-1.617188v-8c0-0.658-0.059609-1.1791875-0.224609-1.6171875a1.88 1.88 0 0 0-0.837891-0.9980469c-0.753-0.41599997-1.673641-0.3697656-2.931641-0.3847656h-8.0078121-0.0039063zm0.0058594 1h8c1.259 0.015 2.087125 0.0597188 2.453125 0.2617188 0.184 0.0999999 0.289719 0.2126562 0.386719 0.4726562s0.160156 0.673625 0.160156 1.265625v8c0 0.592-0.063156 1.005625-0.160156 1.265625-0.098 0.26-0.202719 0.371656-0.386719 0.472656-0.366 0.202-1.194125 0.246719-2.453125 0.261719h-8c-1.259-0.015-2.0900781-0.059719-2.4550781-0.261719-0.183-0.1-0.2867657-0.212656-0.3847657-0.472656-0.0969999-0.26-0.1601562-0.673625-0.1601562-1.265625v-8c0-0.592 0.0631563-1.005625 0.1601562-1.265625 0.098-0.26 0.2017657-0.3716563 0.3847657-0.4726562 0.366-0.202 1.1960781-0.2467188 2.4550781-0.2617188zm3.2011719 2.0019531v1.1875l-0.1757813 0.0625c-0.082 0.03-0.1753906 0.0750469-0.2753906 0.1230469l-0.1679688 0.0820312-0.8339843-0.8320312c0-3e-3 -0.0097188-0.0038594-0.0117188-0.0058594 0 2e-3 -0.0117187 0.0038594-0.0117187 0.0058594l-1.0996094 1.0996094c0.011-0.011 0.011 0.0314843 0 0.0214844l0.8320312 0.8339843-0.0820312 0.1699219c-0.048 0.1-0.0920938 0.1924375-0.1210938 0.2734375l-0.0644531 0.1777344h-1.1894531v1.5976562h1.1894531l0.0644531 0.1777344c0.029 0.08 0.0720938 0.1734375 0.1210938 0.2734375l0.0820312 0.1699219-0.8320312 0.8359371c0.011-0.01 0.011 0.031485 0 0.021485l1.0996094 1.097656c-0.011-0.01 0.0334375-0.01 0.0234375 0l0.8339843-0.832031 0.1679688 0.082031c0.099 0.047 0.1933906 0.093047 0.2753906 0.123047l0.1757813 0.0625v1.1875h1.5996093v-1.1875l0.1777344-0.0625c0.082-0.03 0.1734375-0.075047 0.2734375-0.123047l0.171875-0.082031 0.8320309 0.832031c-0.011-0.01 0.034438-0.01 0.023438 0l1.099609-1.099609c-0.012 0.011-0.012-0.029532 0-0.019532l-0.833984-0.8359371 0.082031-0.1699219c0.048-0.1 0.091094-0.1914375 0.121094-0.2734375l0.064453-0.1777344h1.1875v-1.5976562h-1.1875l-0.064453-0.1777344c-0.035-0.0931-0.074141-0.1846775-0.119141-0.2734375l-0.083984-0.1699219 0.833984-0.8359375c-0.01 0.01-0.01-0.0314843 0-0.0214844l-1.099609-1.0976562c0.012 0.01-0.033485 0.01-0.021485 0l-0.8339839 0.8320312-0.1699219-0.0820312c-0.1-0.048-0.1923906-0.0930469-0.2753906-0.1230469l-0.1757812-0.0625v-1.1875h-1.6015625zm0.8007812 2.6660157c0.733 0 1.3320313 0.6000312 1.3320313 1.3320312 0 0.733-0.6000313 1.3320312-1.3320313 1.3320312-0.733 0-1.3339843-0.6000312-1.3339843-1.3320312 0-0.733 0.6009843-1.3320312 1.3339843-1.3320312z"/>
 </g>
</svg>

<svg xmlns="http://www.w3.org/2000/svg" width="16" height="16" version="1.1">
 <g fill="#808080" transform="translate(-612 -180)">
  <path d="M 3.9941406 1 C 2.7361406 1.015 1.8155 0.96976563 1.0625 1.3847656 A 1.88 1.88 0 0 0 0.22460938 2.3828125 C 0.059609375 2.8208125 0 3.343 0 4 L 0 12 C 0 12.658 0.059609375 13.179188 0.22460938 13.617188 C 0.38860937 14.056187 0.6865 14.407234 1.0625 14.615234 C 1.8155 15.031234 2.7361406 14.985 3.9941406 15 L 12.005859 15 C 13.263859 14.985 14.1845 15.030234 14.9375 14.615234 A 1.88 1.88 0 0 0 15.775391 13.617188 C 15.939391 13.179188 16 12.657 16 12 L 16 4 C 16 3.342 15.940391 2.8208125 15.775391 2.3828125 A 1.88 1.88 0 0 0 14.9375 1.3847656 C 14.1845 0.96876563 13.263859 1.015 12.005859 1 L 3.9980469 1 L 3.9941406 1 z M 4 2 L 12 2 C 13.259 2.015 14.087125 2.0597188 14.453125 2.2617188 C 14.637125 2.3617187 14.742844 2.474375 14.839844 2.734375 C 14.936844 2.994375 15 3.408 15 4 L 15 12 C 15 12.592 14.936844 13.005625 14.839844 13.265625 C 14.741844 13.525625 14.637125 13.637281 14.453125 13.738281 C 14.087125 13.940281 13.259 13.985 12 14 L 4 14 C 2.741 13.985 1.9099219 13.940281 1.5449219 13.738281 C 1.3619219 13.638281 1.2581562 13.525625 1.1601562 13.265625 C 1.0631563 13.005625 1 12.592 1 12 L 1 4 C 1 3.408 1.0631563 2.994375 1.1601562 2.734375 C 1.2581562 2.474375 1.3619219 2.3627187 1.5449219 2.2617188 C 1.9109219 2.0597188 2.741 2.015 4 2 z M 7.2011719 4.0019531 L 7.2011719 5.1894531 L 7.0253906 5.2519531 C 6.9433906 5.2819531 6.85 5.327 6.75 5.375 L 6.5820312 5.4570312 L 5.7480469 4.625 C 5.7480469 4.622 5.7383281 4.6211406 5.7363281 4.6191406 C 5.7363281 4.6211406 5.7246094 4.623 5.7246094 4.625 L 4.625 5.7246094 C 4.636 5.7136094 4.636 5.7560937 4.625 5.7460938 L 5.4570312 6.5800781 L 5.375 6.75 C 5.327 6.85 5.2829062 6.9424375 5.2539062 7.0234375 L 5.1894531 7.2011719 L 4 7.2011719 L 4 8.7988281 L 5.1894531 8.7988281 L 5.2539062 8.9765625 C 5.2829062 9.0565625 5.326 9.15 5.375 9.25 L 5.4570312 9.4199219 L 4.625 10.255859 C 4.636 10.245859 4.636 10.287344 4.625 10.277344 L 5.7246094 11.375 C 5.7136094 11.365 5.7580469 11.365 5.7480469 11.375 L 6.5820312 10.542969 L 6.75 10.625 C 6.849 10.672 6.9433906 10.718047 7.0253906 10.748047 L 7.2011719 10.810547 L 7.2011719 11.998047 L 8.8007812 11.998047 L 8.8007812 10.810547 L 8.9785156 10.748047 C 9.0605156 10.718047 9.1519531 10.673 9.2519531 10.625 L 9.4238281 10.542969 L 10.255859 11.375 C 10.244859 11.365 10.290297 11.365 10.279297 11.375 L 11.378906 10.275391 C 11.366906 10.286391 11.366906 10.245859 11.378906 10.255859 L 10.544922 9.4199219 L 10.626953 9.25 C 10.674953 9.15 10.718047 9.0585625 10.748047 8.9765625 L 10.8125 8.7988281 L 12 8.7988281 L 12 7.2011719 L 10.8125 7.2011719 L 10.748047 7.0234375 C 10.713047 6.9303375 10.673906 6.83876 10.628906 6.75 L 10.544922 6.5800781 L 11.378906 5.7441406 C 11.368906 5.7541406 11.368906 5.7126563 11.378906 5.7226562 L 10.279297 4.625 C 10.291297 4.635 10.245812 4.635 10.257812 4.625 L 9.4238281 5.4570312 L 9.2539062 5.375 C 9.1539062 5.327 9.0615156 5.2819531 8.9785156 5.2519531 L 8.8027344 5.1894531 L 8.8027344 4.0019531 L 7.2011719 4.0019531 z M 8.0019531 6.6679688 C 8.7349531 6.6679688 9.3339844 7.268 9.3339844 8 C 9.3339844 8.733 8.7339531 9.3320312 8.0019531 9.3320312 C 7.2689531 9.3320312 6.6679688 8.732 6.6679688 8 C 6.6679688 7.267 7.2689531 6.6679688 8.0019531 6.6679688 z" transform="translate(612,180)"/>
 </g>
</svg>
